archdroid-icon-theme/Archdroid-Grey/devices/scalable/audio-card.svg

<svg fill="#9E9E9E" height="48" viewBox="0 0 48 48" width="48" xmlns="http://www.w3.org/2000/svg"><path d="m8 10c-2.216 0-4 1.784-4 4v20c0 2.216 1.784 4 4 4h5v3 4.714844c0 .712285.980419 1.285156 2.199219 1.285156h17.601562c1.2188 0 2.199219-.572871 2.199219-1.285156v-6.429688-1.285156h5c2.216 0 4-1.784 4-4v-20c0-2.216-1.784-4-4-4zm16 4h8v4h-6v11c0 2.76-2.24 5-5 5s-5-2.24-5-5 2.24-5 5-5c1.13 0 2.16.389531 3 1.019531zm-9 25h3v6h-3zm5 0h3v6h-3zm5 0h3v6h-3zm5 0h3v6h-3z" fill="#9E9E9E" stroke-width="4"/></svg>

<svg fill="#9E9E9E" height="48" version="1.1" viewBox="0 0 48 48" width="48" xmlns="http://www.w3.org/2000/svg"><path d="M8 10C5.784 10 4 11.784 4 14L4 34C4 36.216 5.784 38 8 38L13 38 13 41 13 45.714844C13 46.427129 13.980419 47 15.199219 47L32.800781 47C34.019581 47 35 46.427129 35 45.714844L35 39.285156 35 38 40 38C42.216 38 44 36.216 44 34L44 14C44 11.784 42.216 10 40 10L8 10zM24 14L32 14 32 18 26 18 26 29C26 31.76 23.76 34 21 34 18.24 34 16 31.76 16 29 16 26.24 18.24 24 21 24 22.13 24 23.16 24.389531 24 25.019531L24 14zM15 39L18 39 18 45 15 45 15 39zM20 39L23 39 23 45 20 45 20 39zM25 39L28 39 28 45 25 45 25 39zM30 39L33 39 33 45 30 45 30 39z" fill="#9E9E9E" stroke-width="4"/></svg>
